X:1
T:Ol' Man River
C:Jerome Kern
Z:All Rights Reserved
L:1/4
M:4/4
K:Eb
V:1 treble 
%%MIDI program 0
V:1
"Eb""^Very slowly" B, B,"Cm" C/ E C/ |"Eb" B, B,"Ab" C/ E F/ |"Eb" G G"Ab" F/ E F/ | %3
w: Ol' Man Riv- er, dat|Ol' Man Riv- er, He|must know sump- in' but|
"Eb" G B"Cm" c/ B c/ |"Bb7" B B G/ F G/ |"Fmaj7" B B"Bb9" G/ F G/ |"Eb""Ab6" E4- |"Eb" E3 z/ B,/ | %8
w: don't say noth- in' He|jus' keeps roll- in', He|keeps on roll- in' a-|long.|_ He|
 B, B,"Cm" C/ E C/ |"Eb" B, B,"Ab" C/ E F/ |"Eb" G B"Cm" c/ B c/ |"Eb/G" e e"Gbdim7" d/ c d/ | %12
w: don't plant 'ta- ters, he|don't plant cot- ton, An'|dem dat plants 'em is|soon for- got- ten; But|
"Fm7" B B"Bb7" G/ F G/ |"Fm7" B B"Bb9" G/ F G/ |"Eb""Ab" E4- |"Eb" E z"D7" z2 | %16
w: Ol' Man Riv- er, he|jus' keeps roll- in' a-|long.|_|
"Gm" d B"D7" c3/2 e/ |"Gm" d B"D7" c2 |"Gm6" d/>d/ B"Cdim7" c/>c/ e |"Gm" d B"D7" c2 | %20
w: You an' me, we|sweat an' strain,|Bod- y all ach- in' an'|racked wid pain.|
"Gm" B/ z/ G"Cm6" =A2 |"Gm" B G"Cdim7" =A2 |"Gm" B/>B/G/>G/"Cdim7" =A c/>c/ | %23
w: "Tote dat barge!"|"Lift dat bale,"|Git a lit- tle drunk an' you|
"Gm" B G"Fm7""Bb7" F2 |"Eb" B, B,"Cm" C/ E C/ |"Eb" B, B,"Ab" C/ E F/ |"Eb" G B"Bb9" c/ B c/ | %27
w: land in jail.|Ah gits wea- ry an'|sick of try- in', Ah'm|tired of liv- in' An'|
"Cm" e e"F7" f/ e f/ |"Eb" g g"Cm" f/ e f/ |"Fm9" g g"Bb7" f/e/ f |1"Eb" e z"Abm" z2 | %31
w: skeered of dy- in', But|Ol' Man Riv- er, he|jus' keeps roll- in' a-|long.|
"Eb""Bb7" z4 :|2"Eb" e4- | e z z2 |] %34
w: |long.|_|

